X:1
T:Ned Kendall's -- Hornpipe
R:hornpipe
B:Cole's 1000 Fiddle Tunes
Z:Bob Puckette <bpuckette:msn.com> 2003-3-8
M:2/4
L:1/16
K:F
uAB|cdcB AFAc|dcde fefd|cAfd cAFA|GFG"4"A G2(AB)|
cdcB AFAc|dcde fefd|cagf ecde|f2a2f2:|
|:(uAB)|.c2((3fef) .d2((3fef)|.c2((3fef) .a2((3fef)|gaba gfed|cfed cBAB|
.c2((3fef) .d2((3fef)|.c2((3fef) .a2((3fef)|gagf ecde|f2a2f2:|
